svg/k8s-group.svg

<?xml version="1.0" encoding="UTF-8"?>
<svg xmlns="http://www.w3.org/2000/svg" xmlns:xlink="http://www.w3.org/1999/xlink" width="32.978001" height="32" viewBox="0 0 32.978001 32">
<path fill-rule="nonzero" fill="rgb(19.607843%, 42.352941%, 89.803922%)" fill-opacity="1" d="M 16.378906 0.847656 C 16.105469 0.863281 15.835938 0.933594 15.585938 1.046875 L 4.722656 6.238281 C 4.15625 6.507812 3.742188 7.023438 3.601562 7.636719 L 0.921875 19.292969 C 0.78125 19.902344 0.925781 20.546875 1.320312 21.035156 L 8.839844 30.382812 C 9.234375 30.871094 9.832031 31.15625 10.460938 31.15625 L 22.515625 31.152344 C 23.148438 31.152344 23.746094 30.871094 24.140625 30.378906 L 31.65625 21.03125 C 32.050781 20.542969 32.199219 19.902344 32.058594 19.289062 L 29.375 7.632812 C 29.234375 7.019531 28.820312 6.503906 28.25 6.234375 L 17.386719 1.046875 C 17.074219 0.898438 16.726562 0.828125 16.378906 0.847656 M 16.378906 0.847656 "/>
<path fill-rule="nonzero" fill="rgb(100%, 100%, 100%)" fill-opacity="1" d="M 16.375 0.00390625 C 16.082031 0.0195312 15.796875 0.0898438 15.535156 0.214844 L 4.070312 5.695312 C 3.46875 5.980469 3.03125 6.523438 2.882812 7.167969 L 0.0546875 19.472656 C -0.078125 20.046875 0.03125 20.648438 0.351562 21.140625 C 0.390625 21.203125 0.433594 21.257812 0.476562 21.3125 L 8.414062 31.183594 C 8.832031 31.699219 9.464844 32 10.128906 32 L 22.851562 31.996094 C 23.519531 31.996094 24.152344 31.695312 24.566406 31.179688 L 32.5 21.3125 C 32.914062 20.796875 33.070312 20.117188 32.921875 19.472656 L 30.089844 7.164062 C 29.9375 6.519531 29.503906 5.976562 28.90625 5.691406 L 17.4375 0.214844 C 17.105469 0.0585938 16.742188 -0.015625 16.375 0.00390625 M 16.378906 0.847656 C 16.726562 0.828125 17.074219 0.898438 17.386719 1.046875 L 28.25 6.234375 C 28.816406 6.507812 29.230469 7.019531 29.375 7.632812 L 32.058594 19.289062 C 32.199219 19.902344 32.050781 20.542969 31.65625 21.03125 L 24.140625 30.378906 C 23.746094 30.871094 23.148438 31.15625 22.515625 31.152344 L 10.460938 31.15625 C 9.828125 31.15625 9.230469 30.871094 8.839844 30.382812 L 1.320312 21.035156 C 0.925781 20.546875 0.78125 19.902344 0.921875 19.292969 L 3.601562 7.636719 C 3.742188 7.023438 4.15625 6.507812 4.722656 6.238281 L 15.585938 1.046875 C 15.832031 0.929688 16.105469 0.859375 16.378906 0.847656 M 9.460938 7.769531 C 9.042969 7.769531 8.644531 7.933594 8.351562 8.226562 C 8.058594 8.523438 7.894531 8.921875 7.894531 9.335938 L 7.894531 22.664062 C 7.894531 23.53125 8.59375 24.230469 9.460938 24.230469 L 23.519531 24.230469 C 23.933594 24.230469 24.335938 24.066406 24.628906 23.773438 C 24.921875 23.476562 25.085938 23.078125 25.085938 22.664062 L 25.085938 9.335938 C 25.085938 8.921875 24.921875 8.519531 24.628906 8.226562 C 24.332031 7.933594 23.933594 7.769531 23.519531 7.769531 Z M 14.199219 11.992188 C 15.148438 11.992188 15.910156 12.757812 15.910156 13.707031 C 15.910156 14.160156 15.730469 14.597656 15.410156 14.921875 C 15.089844 15.246094 14.652344 15.425781 14.199219 15.425781 C 13.742188 15.425781 13.304688 15.246094 12.980469 14.925781 C 12.660156 14.601562 12.480469 14.164062 12.480469 13.707031 C 12.480469 12.757812 13.246094 11.992188 14.199219 11.992188 M 18.78125 11.992188 C 19.730469 11.992188 20.492188 12.757812 20.492188 13.707031 C 20.492188 14.164062 20.3125 14.597656 19.992188 14.921875 C 19.671875 15.246094 19.234375 15.425781 18.78125 15.425781 C 18.324219 15.425781 17.886719 15.246094 17.5625 14.925781 C 17.242188 14.601562 17.0625 14.164062 17.0625 13.707031 C 17.0625 12.757812 17.828125 11.992188 18.78125 11.992188 M 14.199219 16.574219 C 15.53125 16.574219 18.207031 17.242188 18.207031 18.578125 L 18.207031 20.007812 L 10.1875 20.007812 L 10.1875 18.578125 C 10.1875 17.242188 12.863281 16.574219 14.199219 16.574219 M 18.78125 16.574219 C 20.113281 16.574219 22.789062 17.242188 22.789062 18.578125 L 22.789062 20.007812 L 19.351562 20.007812 L 19.351562 18.578125 C 19.351562 17.730469 18.890625 17.082031 18.226562 16.601562 C 18.425781 16.582031 18.609375 16.574219 18.78125 16.574219 M 18.78125 16.574219 "/>
</svg>

<svg role="img" viewBox="0 0 32.978 32" xmlns="http://www.w3.org/2000/svg"><path d="M16.379.848a2.1 2.1 0 0 0-.793.199L4.723 6.238a2.06 2.06 0 0 0-1.121 1.399L.922 19.293c-.14.61.004 1.254.398 1.742l7.52 9.348c.394.488.992.773 1.62.773l12.056-.004c.632 0 1.23-.28 1.625-.773l7.515-9.348a2.04 2.04 0 0 0 .403-1.742L29.375 7.633a2.06 2.06 0 0 0-1.125-1.399L17.387 1.047a2.1 2.1 0 0 0-1.008-.2m0 0" fill="rgb(19.607843%, 42.352942%, 89.803922%)"/><path d="M16.375.004a2.2 2.2 0 0 0-.84.21L4.07 5.696a2.17 2.17 0 0 0-1.187 1.473L.055 19.473a2.16 2.16 0 0 0 .297 1.668q.06.091.125.172l7.937 9.87a2.21 2.21 0 0 0 1.715.817l12.723-.004c.668 0 1.3-.3 1.714-.816l7.934-9.867c.414-.516.57-1.196.422-1.84L30.09 7.164a2.19 2.19 0 0 0-1.184-1.473L17.438.215a2.2 2.2 0 0 0-1.063-.211m.004.844c.348-.02.695.05 1.008.199L28.25 6.234c.566.274.98.786 1.125 1.399l2.684 11.656a2.04 2.04 0 0 1-.403 1.742l-7.515 9.348a2.07 2.07 0 0 1-1.625.773l-12.055.004c-.633 0-1.23-.285-1.621-.773l-7.52-9.348a2.04 2.04 0 0 1-.398-1.742l2.68-11.656a2.06 2.06 0 0 1 1.12-1.399l10.864-5.191c.246-.117.52-.188.793-.2M9.46 7.77a1.57 1.57 0 0 0-1.11.457 1.58 1.58 0 0 0-.456 1.109v13.328c0 .867.699 1.566 1.566 1.566h14.06c.414 0 .816-.164 1.109-.457a1.58 1.58 0 0 0 .457-1.109V9.336a1.58 1.58 0 0 0-.457-1.11 1.57 1.57 0 0 0-1.11-.456Zm4.738 4.222c.95 0 1.711.766 1.711 1.715 0 .453-.18.89-.5 1.215-.32.324-.758.504-1.21.504-.458 0-.895-.18-1.22-.5-.32-.324-.5-.762-.5-1.219 0-.95.766-1.715 1.72-1.715m4.581 0c.95 0 1.711.766 1.711 1.715 0 .457-.18.89-.5 1.215-.32.324-.758.504-1.21.504-.458 0-.895-.18-1.22-.5-.32-.324-.5-.762-.5-1.219 0-.95.766-1.715 1.72-1.715m-4.583 4.582c1.332 0 4.008.668 4.008 2.004v1.43h-8.02v-1.43c0-1.336 2.676-2.004 4.012-2.004m4.582 0c1.332 0 4.008.668 4.008 2.004v1.43h-3.437v-1.43c0-.848-.461-1.496-1.125-1.976q.3-.029.554-.028m0 0" fill="rgb(100%, 100%, 100%)"/></svg>
